X:1
T:The Legacy Jig
M:4/4
L:1/4
R:jig
K:G
GFG B | ABgf | ggab | GFGB | ABd2 | AAFD |
GFGB | ABgf | ggab | agee | dBdB | AAFD |
